X: 86
T: O rosa bella
N: Derived from Ock3014-O_rosa_bella.krn
C: Johannes Ockeghem
%%abc-version 2.0
%%abcx-abcm2ps-target-version 5.9.1 (29 Sep 2008)
%%abc-creator hum2abc beta
%%abcx-conversion-date 2019/02/17 07:26:16
%%abc-edited-by Jesse Rodin
%%abc-edited-by Jesse Rodin (8/16/2012)
%%abcx-initial-encoding-date 2012/08/16/
%%humdrum-veritas 1521580451
%%humdrum-veritas-data 1915142185
%%linebreak <none>
%%barnumbers 0
L: 1/4
M: 2/1
Q: 1/2=120
%%staves {1 2}
V: 1 clef=treble
V: 2 clef=treble
K: C
[V:1] G4_B3G | 
[V:2] G6E2 :
[V:1] A4G2D2- | 
[V:2] F2EFG2FE | 
[V:1] DEF2G2A2- | 
[V:2] D4z2C2 :
[V:1] AFG3^FFE | 
[V:2] D2_B,2A,4 | 
[V:1] G2FED4 | 
[V:2] G,4z2F2 :
[V:1] z2C2D2C_B, | 
[V:2] G2_B2AGG2- | 
[V:1] A,4G,4 | 
[V:2] G2^F2G4 :
[V:1] G,4z2D2 | 
[V:2] z2D2D2D2 | 
[V:1] D2D2_B,2G,2 | 
[V:2] _B,2G,2z2D2 :
[V:1] z2C4_B,2 | 
[V:2] _E4D4 | 
[V:1] C2D2EFG2- | 
[V:2] C2_B,2G,4 :
[V:1] G^FFEG2z2 | 
[V:2] A,4G,4 | 
[V:1] A4_B2G2- | 
[V:2] z2F2G4 :
[V:1] G2G2D3E | 
[V:2] _B4A4- | 
[V:1] F2F2G4 | 
[V:2] A2A2G4 :
[V:1] _B2A4G2- | 
[V:2] G2F4E2- | 
[V:1] G2A2F2E2 | 
[V:2] EDD4^C2 :
[V:1] DC_B,A,G,4 | 
[V:2] D4z2G2 | 
[V:1] D4z2G2 | 
[V:2] F4E4 :
[V:1] F4E4 | 
[V:2] D2D2z2C2 | 
[V:1] D2D3EF2 | 
[V:2] _B,2D3CB,A, :
[V:1] G2G,2A,4 | 
[V:2] G,4z2F2 | 
[V:1] G,2C4_B,2 | 
[V:2] G2A4F2 :
[V:1] G,4z2_B,2 | 
[V:2] G2FED4 | 
[V:1] C2_B,3A,F,2 | 
[V:2] E2F3GA2 :
[V:1] G,3E,!fermata!D,4 ||  
[V:2] _B2AG!fermata!^F4 ||  
[V:1]  [K:C] [K:clef=treble][M:2/1]A,4A,2A,2 | 
[V:2]  [K:C] [K:clef=treble][M:2/1]F4F2F2 | 
[V:1] G,4z2G2- | 
[V:2] G2FED2_E2 | 
[V:1] GFG2A2^F2 | 
[V:2] D2C_B,A,4 | 
[V:1] G2z2A3G | 
[V:2] G,4z2D2 | 
[V:1] F4E2G2- | 
[V:2] D2D2C4 | 
[V:1] GFF2_E4 | 
[V:2] _E2D4C2 | 
[V:1] D3EF4- | 
[V:2] D2C_B,A,2D2- | 
[V:1] F2F2G2FE | 
[V:2] DC_B,A,G,2C2- | 
[V:1] D4z2_E2 | 
[V:2] C2=B,2C4 | 
[V:1] C2_B,A,G,4 | 
[V:2] z2G2G4 | 
[V:1] A,3_B,C2B,A, | 
[V:2] F4E2D2- | 
[V:1] G,4z2A,2 | 
[V:2] D2G2F4 | 
[V:1] C4_B,2A,2- | 
[V:2] E4D2C2- | 
[V:1] A,2G3E^F2 | 
[V:2] C2_B,2A,4 | 
[V:1] G4A2_B2- | 
[V:2] G,4z4 | 
[V:1] B2AGF4 | 
[V:2] G4A4- | 
[V:1] D2E2F4 | 
[V:2] A2G2A4 | 
[V:1] GFGA_BcBA/G/ | 
[V:2] _B4-B4 | 
[V:1] G^FFEG2z2 | 
[V:2] A4G3F | 
[V:1] A2GFD2F2 | 
[V:2] D2E2F2z2 | 
[V:1] E2D2z2C2- | 
[V:2] G2A2_B2c2- | 
[V:1] CDCD/E/F2D2 | 
[V:2] c_BAGF2B2 | 
[V:1] C_B,G,2A,4 | 
[V:2] AGG4^F2 | 
[V:1] G,8 ||  
[V:2] G4-G4 ||  



